report_00007_2020-12-11T15:55:29.892Z/bootup-time/comparison/sorted/2_vs_3.svg

<svg width="640" height="500" xmlns="http://www.w3.org/2000/svg" xmlns:xlink="http://www.w3.org/1999/xlink"><path fill="#fff" d="M0 0h640v500H0z"/><defs><path id="d" stroke-width=".222" stroke="currentColor" d="M-1-1h2v2h-2z"/><path id="b" stroke-width=".222" stroke="currentColor" d="M0-1.33l-1.33 2h2.66z"/><path id="f" stroke-width=".222" stroke="currentColor" d="M0 1.33L1.265.411.782-1.067l-1.564-.009-.483 1.487z"/><use xlink:href="#b" id="c" stroke="currentColor" transform="rotate(180)"/><use xlink:href="#d" id="e" stroke="currentColor" transform="rotate(45)"/><circle id="a" stroke-width=".222" stroke="currentColor" cx="0" cy="0" r="1"/></defs><g fill="none" color="#000" stroke="currentColor"><path stroke="#000" d="M53.9 410.5h9m552.1 0h-9"/><text transform="translate(45.6 414.4)" stroke="none" fill="#000" font-family="Arial" font-size="12" text-anchor="end"><tspan>540</tspan></text></g><g fill="none" color="#000" stroke="currentColor"><path stroke="#000" d="M53.9 367.8h9m552.1 0h-9"/><text transform="translate(45.6 371.7)" stroke="none" fill="#000" font-family="Arial" font-size="12" text-anchor="end"><tspan>550</tspan></text></g><g fill="none" color="#000" stroke="currentColor"><path stroke="#000" d="M53.9 325.1h9m552.1 0h-9"/><text transform="translate(45.6 329)" stroke="none" fill="#000" font-family="Arial" font-size="12" text-anchor="end"><tspan>560</tspan></text></g><g fill="none" color="#000" stroke="currentColor"><path stroke="#000" d="M53.9 282.4h9m552.1 0h-9"/><text transform="translate(45.6 286.3)" stroke="none" fill="#000" font-family="Arial" font-size="12" text-anchor="end"><tspan>570</tspan></text></g><g fill="none" color="#000" stroke="currentColor"><path stroke="#000" d="M53.9 239.7h9m552.1 0h-9"/><text transform="translate(45.6 243.6)" stroke="none" fill="#000" font-family="Arial" font-size="12" text-anchor="end"><tspan>580</tspan></text></g><g fill="none" color="#000" stroke="currentColor"><path stroke="#000" d="M53.9 197h9m552.1 0h-9"/><text transform="translate(45.6 200.9)" stroke="none" fill="#000" font-family="Arial" font-size="12" text-anchor="end"><tspan>590</tspan></text></g><g fill="none" color="#000" stroke="currentColor"><path stroke="#000" d="M53.9 154.4h9m552.1 0h-9"/><text transform="translate(45.6 158.3)" stroke="none" fill="#000" font-family="Arial" font-size="12" text-anchor="end"><tspan>600</tspan></text></g><g fill="none" color="#000" stroke="currentColor"><path stroke="#000" d="M53.9 111.7h9m552.1 0h-9"/><text transform="translate(45.6 115.6)" stroke="none" fill="#000" font-family="Arial" font-size="12" text-anchor="end"><tspan>610</tspan></text></g><g fill="none" color="#000" stroke="currentColor"><path stroke="#000" d="M53.9 69h9M615 69h-9"/><text transform="translate(45.6 72.9)" stroke="none" fill="#000" font-family="Arial" font-size="12" text-anchor="end"><tspan>620</tspan></text></g><g fill="none" color="#000" stroke="currentColor"><path stroke="#000" d="M53.9 26.3h9m552.1 0h-9"/><text transform="translate(45.6 30.2)" stroke="none" fill="#000" font-family="Arial" font-size="12" text-anchor="end"><tspan>630</tspan></text></g><g fill="none" color="#000" stroke="currentColor"><path stroke="#000" d="M53.9 428v-9m0-400.9v9"/><text transform="translate(53.9 449.9)" stroke="none" fill="#000" font-family="Arial" font-size="12" text-anchor="middle"><tspan>0</tspan></text></g><g fill="none" color="#000" stroke="currentColor"><path stroke="#000" d="M110.6 428v-9m0-400.9v9"/><text transform="translate(110.6 449.9)" stroke="none" fill="#000" font-family="Arial" font-size="12" text-anchor="middle"><tspan>10</tspan></text></g><g fill="none" color="#000" stroke="currentColor"><path stroke="#000" d="M167.3 428v-9m0-400.9v9"/><text transform="translate(167.3 449.9)" stroke="none" fill="#000" font-family="Arial" font-size="12" text-anchor="middle"><tspan>20</tspan></text></g><g fill="none" color="#000" stroke="currentColor"><path stroke="#000" d="M223.9 428v-9m0-400.9v9"/><text transform="translate(223.9 449.9)" stroke="none" fill="#000" font-family="Arial" font-size="12" text-anchor="middle"><tspan>30</tspan></text></g><g fill="none" color="#000" stroke="currentColor"><path stroke="#000" d="M280.6 428v-9m0-400.9v9"/><text transform="translate(280.6 449.9)" stroke="none" fill="#000" font-family="Arial" font-size="12" text-anchor="middle"><tspan>40</tspan></text></g><g fill="none" color="#000" stroke="currentColor"><path stroke="#000" d="M337.3 428v-9m0-400.9v9"/><text transform="translate(337.3 449.9)" stroke="none" fill="#000" font-family="Arial" font-size="12" text-anchor="middle"><tspan>50</tspan></text></g><g fill="none" color="#000" stroke="currentColor"><path stroke="#000" d="M394 428v-9m0-400.9v9"/><text transform="translate(394 449.9)" stroke="none" fill="#000" font-family="Arial" font-size="12" text-anchor="middle"><tspan>60</tspan></text></g><g fill="none" color="#000" stroke="currentColor"><path stroke="#000" d="M450.6 428v-9m0-400.9v9"/><text transform="translate(450.6 449.9)" stroke="none" fill="#000" font-family="Arial" font-size="12" text-anchor="middle"><tspan>70</tspan></text></g><g fill="none" color="#000" stroke="currentColor"><path stroke="#000" d="M507.3 428v-9m0-400.9v9"/><text transform="translate(507.3 449.9)" stroke="none" fill="#000" font-family="Arial" font-size="12" text-anchor="middle"><tspan>80</tspan></text></g><g fill="none" color="#000" stroke="currentColor"><path stroke="#000" d="M564 428v-9m0-400.9v9"/><text transform="translate(564 449.9)" stroke="none" fill="#000" font-family="Arial" font-size="12" text-anchor="middle"><tspan>90</tspan></text></g><path stroke="#000" d="M53.9 18.1V428H615V18.1H53.9z" fill="none" color="#000"/><text transform="translate(275.6 467.9)" stroke="none" fill="#000" font-family="Arial" font-size="12" text-anchor="end" color="#000"><tspan>pages+cached</tspan></text><path stroke="#9400D3" d="M283.9 464h42.2M53.9 420.1l5.7-16.5 5.6-2.7 5.7-9.4 5.7-.7 5.6-1.8 5.7-.8 5.7-2.7 5.6-2.7 5.7-.7 5.7-1.6 5.6-.5 5.7-.2 5.7-.6 5.6-1.5 5.7-1 5.7-.5 5.7-1.7 5.6-1.3 5.7-.2 5.7-.4 5.6-.6h5.7l5.7-.7 5.6-.1 5.7-.9 5.7-1.5 5.6-4.4 5.7-.4 5.7-.1 5.6-.2 5.7-1.3 5.7-1.5 5.6-2 5.7-3.3 5.7-1.5 5.6-2.3 5.7-.2 5.7-2.6 5.6-4.1 5.7-1.5 5.7-.2 5.6-.4 5.7-2.6 5.7-4.2 5.6-3 5.7-3 5.7-1.8 5.6-4.2 5.7-2.2 5.7-1.5 5.7-2.9 5.6-3.1 5.7-23.9 5.7-.4 5.6-.1 5.7-2.6 5.7-1.9 5.6-4.9 5.7-.6 5.7-2.4 5.6-.2 5.7-3.6 5.7-1 5.6-.3 5.7-.1 5.7-4.4 5.6-.3 5.7-1.2 5.7-.3 5.6-.8 5.7-2.7 5.7-.7 5.6-2.2 5.7-3.8 5.7-.4 5.6-1.1 5.7-4.6 5.7-.1 5.6-1.4 5.7-1 5.7-2.3 5.6-2.1 5.7-3 5.7-3.3 5.7-6 5.6-1.3 5.7-2.7 5.7-5.6 5.6-5 5.7-9.2 5.7-1.9 5.6-7.1 5.7-22.4 5.7-5.1 5.6-19.3 5.7-6 5.7-55.4 5.6-60.8L615 26" fill="none" color="#000"/><text transform="translate(275.6 485.9)" stroke="none" fill="#000" font-family="Arial" font-size="12" text-anchor="end" color="#000"><tspan>pages+cached+nointeractive</tspan></text><path stroke="#009E73" d="M283.9 482h42.2M53.9 415.7l5.7-1.9 5.6-9.4 5.7-2.2 5.7-.7 5.6-.4 5.7-2.2 5.7-3.3 5.6-.8h5.7l5.7-.6 5.6-1.4 5.7-.3 5.7-1.1 5.6-1.3 5.7-.1 5.7-.7 5.7-.1 5.6-.2 5.7-.4 5.7-.5 5.6-.3 5.7-.2 5.7-.1 5.6-.3 5.7-.2 5.7-.5 5.6-.8 5.7-.8 5.7-.4 5.6-.4h5.7l5.7-1 5.6-.7 5.7-.3 5.7-1 5.6-1.6 5.7-1.2 5.7-1.6 5.6-.2 5.7-2.8h5.7l5.6-.1 5.7-2.9 5.7-.9 5.6-.3 5.7-.3 5.7-.7 5.6-1.3 5.7-.1 5.7-.9 5.7-2.4 5.6-.7 5.7-.6 5.7-.6 5.6-.7 5.7-.2 5.7-1.4 5.6-3.3 5.7-2.1 5.7-5.2 5.6-12.4 5.7-.4h5.7l5.6-.9 5.7-7.6 5.7-6.9 5.6-4.3 5.7-13.9 5.7-6.8 5.6-1.8 5.7-.9 5.7-.5 5.6-6.8 5.7-.4 5.7-1.3 5.6-1.7 5.7-.3 5.7-1.9 5.6-.5 5.7-2 5.7-.6 5.6-4.9 5.7-.7 5.7-1 5.7-4.2 5.6-2 5.7-1.1 5.7-4.7 5.6-.4 5.7-2.2 5.7-3.1 5.6-8.1 5.7-3 5.7-1.8 5.6-1.1 5.7-8.4 5.7-50 5.6-19.8 5.7-26.7" fill="none" color="#000"/><text transform="translate(550.2 467.9)" stroke="none" fill="#000" font-family="Arial" font-size="12" text-anchor="end" color="#000"><tspan>score p10=1282</tspan></text><path stroke="#56B4E9" d="M558.5 464h42.2" fill="none" color="#000"/><g><text transform="translate(550.2 485.9)" stroke="none" fill="#000" font-family="Arial" font-size="12" text-anchor="end" color="#000"><tspan>score median=3500</tspan></text><path stroke="#E69F00" d="M558.5 482h42.2" fill="none" color="#000"/></g><g fill="none" color="#000" stroke="currentColor"><path stroke="#000" d="M53.9 18.1V428H615V18.1H53.9z"/></g></svg>

<?xml version="1.0" encoding="utf-8"  standalone="no"?>
<svg 
 width="640" height="500"
 viewBox="0 0 640 500"
 xmlns="http://www.w3.org/2000/svg"
 xmlns:xlink="http://www.w3.org/1999/xlink"
>

<title>Gnuplot</title>
<desc>Produced by GNUPLOT 5.4 patchlevel 0 </desc>

<g id="gnuplot_canvas">

<rect x="0" y="0" width="640" height="500" fill="#ffffff"/>
<defs>

	<circle id='gpDot' r='0.5' stroke-width='0.5' stroke='currentColor'/>
	<path id='gpPt0' stroke-width='0.222' stroke='currentColor' d='M-1,0 h2 M0,-1 v2'/>
	<path id='gpPt1' stroke-width='0.222' stroke='currentColor' d='M-1,-1 L1,1 M1,-1 L-1,1'/>
	<path id='gpPt2' stroke-width='0.222' stroke='currentColor' d='M-1,0 L1,0 M0,-1 L0,1 M-1,-1 L1,1 M-1,1 L1,-1'/>
	<rect id='gpPt3' stroke-width='0.222' stroke='currentColor' x='-1' y='-1' width='2' height='2'/>
	<rect id='gpPt4' stroke-width='0.222' stroke='currentColor' fill='currentColor' x='-1' y='-1' width='2' height='2'/>
	<circle id='gpPt5' stroke-width='0.222' stroke='currentColor' cx='0' cy='0' r='1'/>
	<use xlink:href='#gpPt5' id='gpPt6' fill='currentColor' stroke='none'/>
	<path id='gpPt7' stroke-width='0.222' stroke='currentColor' d='M0,-1.33 L-1.33,0.67 L1.33,0.67 z'/>
	<use xlink:href='#gpPt7' id='gpPt8' fill='currentColor' stroke='none'/>
	<use xlink:href='#gpPt7' id='gpPt9' stroke='currentColor' transform='rotate(180)'/>
	<use xlink:href='#gpPt9' id='gpPt10' fill='currentColor' stroke='none'/>
	<use xlink:href='#gpPt3' id='gpPt11' stroke='currentColor' transform='rotate(45)'/>
	<use xlink:href='#gpPt11' id='gpPt12' fill='currentColor' stroke='none'/>
	<path id='gpPt13' stroke-width='0.222' stroke='currentColor' d='M0,1.330 L1.265,0.411 L0.782,-1.067 L-0.782,-1.076 L-1.265,0.411 z'/>
	<use xlink:href='#gpPt13' id='gpPt14' fill='currentColor' stroke='none'/>
	<filter id='textbox' filterUnits='objectBoundingBox' x='0' y='0' height='1' width='1'>
	  <feFlood flood-color='#FFFFFF' flood-opacity='1' result='bgnd'/>
	  <feComposite in='SourceGraphic' in2='bgnd' operator='atop'/>
	</filter>
	<filter id='greybox' filterUnits='objectBoundingBox' x='0' y='0' height='1' width='1'>
	  <feFlood flood-color='lightgrey' flood-opacity='1' result='grey'/>
	  <feComposite in='SourceGraphic' in2='grey' operator='atop'/>
	</filter>
</defs>
<g fill="none" color="#FFFFFF" stroke="black" stroke-width="1.00" stroke-linecap="butt" stroke-linejoin="miter">
</g>
<g fill="none" color="black" stroke="currentColor" stroke-width="1.00" stroke-linecap="butt" stroke-linejoin="miter">
	<path stroke='black'  d='M53.9,410.5 L62.9,410.5 M615.0,410.5 L606.0,410.5  '/>	<g transform="translate(45.6,414.4)" stroke="none" fill="black" font-family="Arial" font-size="12.00"  text-anchor="end">
		<text><tspan font-family="Arial" > 540</tspan></text>
	</g>
</g>
<g fill="none" color="black" stroke="currentColor" stroke-width="1.00" stroke-linecap="butt" stroke-linejoin="miter">
	<path stroke='black'  d='M53.9,367.8 L62.9,367.8 M615.0,367.8 L606.0,367.8  '/>	<g transform="translate(45.6,371.7)" stroke="none" fill="black" font-family="Arial" font-size="12.00"  text-anchor="end">
		<text><tspan font-family="Arial" > 550</tspan></text>
	</g>
</g>
<g fill="none" color="black" stroke="currentColor" stroke-width="1.00" stroke-linecap="butt" stroke-linejoin="miter">
	<path stroke='black'  d='M53.9,325.1 L62.9,325.1 M615.0,325.1 L606.0,325.1  '/>	<g transform="translate(45.6,329.0)" stroke="none" fill="black" font-family="Arial" font-size="12.00"  text-anchor="end">
		<text><tspan font-family="Arial" > 560</tspan></text>
	</g>
</g>
<g fill="none" color="black" stroke="currentColor" stroke-width="1.00" stroke-linecap="butt" stroke-linejoin="miter">
	<path stroke='black'  d='M53.9,282.4 L62.9,282.4 M615.0,282.4 L606.0,282.4  '/>	<g transform="translate(45.6,286.3)" stroke="none" fill="black" font-family="Arial" font-size="12.00"  text-anchor="end">
		<text><tspan font-family="Arial" > 570</tspan></text>
	</g>
</g>
<g fill="none" color="black" stroke="currentColor" stroke-width="1.00" stroke-linecap="butt" stroke-linejoin="miter">
	<path stroke='black'  d='M53.9,239.7 L62.9,239.7 M615.0,239.7 L606.0,239.7  '/>	<g transform="translate(45.6,243.6)" stroke="none" fill="black" font-family="Arial" font-size="12.00"  text-anchor="end">
		<text><tspan font-family="Arial" > 580</tspan></text>
	</g>
</g>
<g fill="none" color="black" stroke="currentColor" stroke-width="1.00" stroke-linecap="butt" stroke-linejoin="miter">
	<path stroke='black'  d='M53.9,197.0 L62.9,197.0 M615.0,197.0 L606.0,197.0  '/>	<g transform="translate(45.6,200.9)" stroke="none" fill="black" font-family="Arial" font-size="12.00"  text-anchor="end">
		<text><tspan font-family="Arial" > 590</tspan></text>
	</g>
</g>
<g fill="none" color="black" stroke="currentColor" stroke-width="1.00" stroke-linecap="butt" stroke-linejoin="miter">
	<path stroke='black'  d='M53.9,154.4 L62.9,154.4 M615.0,154.4 L606.0,154.4  '/>	<g transform="translate(45.6,158.3)" stroke="none" fill="black" font-family="Arial" font-size="12.00"  text-anchor="end">
		<text><tspan font-family="Arial" > 600</tspan></text>
	</g>
</g>
<g fill="none" color="black" stroke="currentColor" stroke-width="1.00" stroke-linecap="butt" stroke-linejoin="miter">
	<path stroke='black'  d='M53.9,111.7 L62.9,111.7 M615.0,111.7 L606.0,111.7  '/>	<g transform="translate(45.6,115.6)" stroke="none" fill="black" font-family="Arial" font-size="12.00"  text-anchor="end">
		<text><tspan font-family="Arial" > 610</tspan></text>
	</g>
</g>
<g fill="none" color="black" stroke="currentColor" stroke-width="1.00" stroke-linecap="butt" stroke-linejoin="miter">
	<path stroke='black'  d='M53.9,69.0 L62.9,69.0 M615.0,69.0 L606.0,69.0  '/>	<g transform="translate(45.6,72.9)" stroke="none" fill="black" font-family="Arial" font-size="12.00"  text-anchor="end">
		<text><tspan font-family="Arial" > 620</tspan></text>
	</g>
</g>
<g fill="none" color="black" stroke="currentColor" stroke-width="1.00" stroke-linecap="butt" stroke-linejoin="miter">
	<path stroke='black'  d='M53.9,26.3 L62.9,26.3 M615.0,26.3 L606.0,26.3  '/>	<g transform="translate(45.6,30.2)" stroke="none" fill="black" font-family="Arial" font-size="12.00"  text-anchor="end">
		<text><tspan font-family="Arial" > 630</tspan></text>
	</g>
</g>
<g fill="none" color="black" stroke="currentColor" stroke-width="1.00" stroke-linecap="butt" stroke-linejoin="miter">
	<path stroke='black'  d='M53.9,428.0 L53.9,419.0 M53.9,18.1 L53.9,27.1  '/>	<g transform="translate(53.9,449.9)" stroke="none" fill="black" font-family="Arial" font-size="12.00"  text-anchor="middle">
		<text><tspan font-family="Arial" > 0</tspan></text>
	</g>
</g>
<g fill="none" color="black" stroke="currentColor" stroke-width="1.00" stroke-linecap="butt" stroke-linejoin="miter">
	<path stroke='black'  d='M110.6,428.0 L110.6,419.0 M110.6,18.1 L110.6,27.1  '/>	<g transform="translate(110.6,449.9)" stroke="none" fill="black" font-family="Arial" font-size="12.00"  text-anchor="middle">
		<text><tspan font-family="Arial" > 10</tspan></text>
	</g>
</g>
<g fill="none" color="black" stroke="currentColor" stroke-width="1.00" stroke-linecap="butt" stroke-linejoin="miter">
	<path stroke='black'  d='M167.3,428.0 L167.3,419.0 M167.3,18.1 L167.3,27.1  '/>	<g transform="translate(167.3,449.9)" stroke="none" fill="black" font-family="Arial" font-size="12.00"  text-anchor="middle">
		<text><tspan font-family="Arial" > 20</tspan></text>
	</g>
</g>
<g fill="none" color="black" stroke="currentColor" stroke-width="1.00" stroke-linecap="butt" stroke-linejoin="miter">
	<path stroke='black'  d='M223.9,428.0 L223.9,419.0 M223.9,18.1 L223.9,27.1  '/>	<g transform="translate(223.9,449.9)" stroke="none" fill="black" font-family="Arial" font-size="12.00"  text-anchor="middle">
		<text><tspan font-family="Arial" > 30</tspan></text>
	</g>
</g>
<g fill="none" color="black" stroke="currentColor" stroke-width="1.00" stroke-linecap="butt" stroke-linejoin="miter">
	<path stroke='black'  d='M280.6,428.0 L280.6,419.0 M280.6,18.1 L280.6,27.1  '/>	<g transform="translate(280.6,449.9)" stroke="none" fill="black" font-family="Arial" font-size="12.00"  text-anchor="middle">
		<text><tspan font-family="Arial" > 40</tspan></text>
	</g>
</g>
<g fill="none" color="black" stroke="currentColor" stroke-width="1.00" stroke-linecap="butt" stroke-linejoin="miter">
	<path stroke='black'  d='M337.3,428.0 L337.3,419.0 M337.3,18.1 L337.3,27.1  '/>	<g transform="translate(337.3,449.9)" stroke="none" fill="black" font-family="Arial" font-size="12.00"  text-anchor="middle">
		<text><tspan font-family="Arial" > 50</tspan></text>
	</g>
</g>
<g fill="none" color="black" stroke="currentColor" stroke-width="1.00" stroke-linecap="butt" stroke-linejoin="miter">
	<path stroke='black'  d='M394.0,428.0 L394.0,419.0 M394.0,18.1 L394.0,27.1  '/>	<g transform="translate(394.0,449.9)" stroke="none" fill="black" font-family="Arial" font-size="12.00"  text-anchor="middle">
		<text><tspan font-family="Arial" > 60</tspan></text>
	</g>
</g>
<g fill="none" color="black" stroke="currentColor" stroke-width="1.00" stroke-linecap="butt" stroke-linejoin="miter">
	<path stroke='black'  d='M450.6,428.0 L450.6,419.0 M450.6,18.1 L450.6,27.1  '/>	<g transform="translate(450.6,449.9)" stroke="none" fill="black" font-family="Arial" font-size="12.00"  text-anchor="middle">
		<text><tspan font-family="Arial" > 70</tspan></text>
	</g>
</g>
<g fill="none" color="black" stroke="currentColor" stroke-width="1.00" stroke-linecap="butt" stroke-linejoin="miter">
	<path stroke='black'  d='M507.3,428.0 L507.3,419.0 M507.3,18.1 L507.3,27.1  '/>	<g transform="translate(507.3,449.9)" stroke="none" fill="black" font-family="Arial" font-size="12.00"  text-anchor="middle">
		<text><tspan font-family="Arial" > 80</tspan></text>
	</g>
</g>
<g fill="none" color="black" stroke="currentColor" stroke-width="1.00" stroke-linecap="butt" stroke-linejoin="miter">
	<path stroke='black'  d='M564.0,428.0 L564.0,419.0 M564.0,18.1 L564.0,27.1  '/>	<g transform="translate(564.0,449.9)" stroke="none" fill="black" font-family="Arial" font-size="12.00"  text-anchor="middle">
		<text><tspan font-family="Arial" > 90</tspan></text>
	</g>
</g>
<g fill="none" color="black" stroke="currentColor" stroke-width="1.00" stroke-linecap="butt" stroke-linejoin="miter">
</g>
<g fill="none" color="black" stroke="currentColor" stroke-width="1.00" stroke-linecap="butt" stroke-linejoin="miter">
	<path stroke='black'  d='M53.9,18.1 L53.9,428.0 L615.0,428.0 L615.0,18.1 L53.9,18.1 Z  '/></g>
<g fill="none" color="black" stroke="currentColor" stroke-width="1.00" stroke-linecap="butt" stroke-linejoin="miter">
</g>
	<g id="gnuplot_plot_1" ><title>pages+cached</title>
<g fill="none" color="black" stroke="currentColor" stroke-width="1.00" stroke-linecap="butt" stroke-linejoin="miter">
	<g transform="translate(275.6,467.9)" stroke="none" fill="black" font-family="Arial" font-size="12.00"  text-anchor="end">
		<text><tspan font-family="Arial" >pages+cached</tspan></text>
	</g>
</g>
<g fill="none" color="black" stroke="currentColor" stroke-width="1.00" stroke-linecap="butt" stroke-linejoin="miter">
	<path stroke='rgb(148,   0, 211)'  d='M283.9,464.0 L326.1,464.0 M53.9,420.1 L59.6,403.6 L65.2,400.9 L70.9,391.5 L76.6,390.8 L82.2,389.0
		L87.9,388.2 L93.6,385.5 L99.2,382.8 L104.9,382.1 L110.6,380.5 L116.2,380.0 L121.9,379.8 L127.6,379.2
		L133.2,377.7 L138.9,376.7 L144.6,376.2 L150.3,374.5 L155.9,373.2 L161.6,373.0 L167.3,372.6 L172.9,372.0
		L178.6,372.0 L184.3,371.3 L189.9,371.2 L195.6,370.3 L201.3,368.8 L206.9,364.4 L212.6,364.0 L218.3,363.9
		L223.9,363.7 L229.6,362.4 L235.3,360.9 L240.9,358.9 L246.6,355.6 L252.3,354.1 L257.9,351.8 L263.6,351.6
		L269.3,349.0 L274.9,344.9 L280.6,343.4 L286.3,343.2 L291.9,342.8 L297.6,340.2 L303.3,336.0 L308.9,333.0
		L314.6,330.0 L320.3,328.2 L325.9,324.0 L331.6,321.8 L337.3,320.3 L343.0,317.4 L348.6,314.3 L354.3,290.4
		L360.0,290.0 L365.6,289.9 L371.3,287.3 L377.0,285.4 L382.6,280.5 L388.3,279.9 L394.0,277.5 L399.6,277.3
		L405.3,273.7 L411.0,272.7 L416.6,272.4 L422.3,272.3 L428.0,267.9 L433.6,267.6 L439.3,266.4 L445.0,266.1
		L450.6,265.3 L456.3,262.6 L462.0,261.9 L467.6,259.7 L473.3,255.9 L479.0,255.5 L484.6,254.4 L490.3,249.8
		L496.0,249.7 L501.6,248.3 L507.3,247.3 L513.0,245.0 L518.6,242.9 L524.3,239.9 L530.0,236.6 L535.7,230.6
		L541.3,229.3 L547.0,226.6 L552.7,221.0 L558.3,216.0 L564.0,206.8 L569.7,204.9 L575.3,197.8 L581.0,175.4
		L586.7,170.3 L592.3,151.0 L598.0,145.0 L603.7,89.6 L609.3,28.8 L615.0,26.0  '/></g>
	</g>
	<g id="gnuplot_plot_2" ><title>pages+cached+nointeractive</title>
<g fill="none" color="black" stroke="currentColor" stroke-width="1.00" stroke-linecap="butt" stroke-linejoin="miter">
	<g transform="translate(275.6,485.9)" stroke="none" fill="black" font-family="Arial" font-size="12.00"  text-anchor="end">
		<text><tspan font-family="Arial" >pages+cached+nointeractive</tspan></text>
	</g>
</g>
<g fill="none" color="black" stroke="currentColor" stroke-width="1.00" stroke-linecap="butt" stroke-linejoin="miter">
	<path stroke='rgb(  0, 158, 115)'  d='M283.9,482.0 L326.1,482.0 M53.9,415.7 L59.6,413.8 L65.2,404.4 L70.9,402.2 L76.6,401.5 L82.2,401.1
		L87.9,398.9 L93.6,395.6 L99.2,394.8 L104.9,394.8 L110.6,394.2 L116.2,392.8 L121.9,392.5 L127.6,391.4
		L133.2,390.1 L138.9,390.0 L144.6,389.3 L150.3,389.2 L155.9,389.0 L161.6,388.6 L167.3,388.1 L172.9,387.8
		L178.6,387.6 L184.3,387.5 L189.9,387.2 L195.6,387.0 L201.3,386.5 L206.9,385.7 L212.6,384.9 L218.3,384.5
		L223.9,384.1 L229.6,384.1 L235.3,383.1 L240.9,382.4 L246.6,382.1 L252.3,381.1 L257.9,379.5 L263.6,378.3
		L269.3,376.7 L274.9,376.5 L280.6,373.7 L286.3,373.7 L291.9,373.6 L297.6,370.7 L303.3,369.8 L308.9,369.5
		L314.6,369.2 L320.3,368.5 L325.9,367.2 L331.6,367.1 L337.3,366.2 L343.0,363.8 L348.6,363.1 L354.3,362.5
		L360.0,361.9 L365.6,361.2 L371.3,361.0 L377.0,359.6 L382.6,356.3 L388.3,354.2 L394.0,349.0 L399.6,336.6
		L405.3,336.2 L411.0,336.2 L416.6,335.3 L422.3,327.7 L428.0,320.8 L433.6,316.5 L439.3,302.6 L445.0,295.8
		L450.6,294.0 L456.3,293.1 L462.0,292.6 L467.6,285.8 L473.3,285.4 L479.0,284.1 L484.6,282.4 L490.3,282.1
		L496.0,280.2 L501.6,279.7 L507.3,277.7 L513.0,277.1 L518.6,272.2 L524.3,271.5 L530.0,270.5 L535.7,266.3
		L541.3,264.3 L547.0,263.2 L552.7,258.5 L558.3,258.1 L564.0,255.9 L569.7,252.8 L575.3,244.7 L581.0,241.7
		L586.7,239.9 L592.3,238.8 L598.0,230.4 L603.7,180.4 L609.3,160.6 L615.0,133.9  '/></g>
	</g>
	<g id="gnuplot_plot_3" ><title>score p10=1282</title>
<g fill="none" color="black" stroke="currentColor" stroke-width="1.00" stroke-linecap="butt" stroke-linejoin="miter">
	<g transform="translate(550.2,467.9)" stroke="none" fill="black" font-family="Arial" font-size="12.00"  text-anchor="end">
		<text><tspan font-family="Arial" >score p10=1282</tspan></text>
	</g>
</g>
<g fill="none" color="black" stroke="currentColor" stroke-width="1.00" stroke-linecap="butt" stroke-linejoin="miter">
	<path stroke='rgb( 86, 180, 233)'  d='M558.5,464.0 L600.7,464.0  '/></g>
	</g>
	<g id="gnuplot_plot_4" ><title>score median=3500</title>
<g fill="none" color="black" stroke="currentColor" stroke-width="1.00" stroke-linecap="butt" stroke-linejoin="miter">
	<g transform="translate(550.2,485.9)" stroke="none" fill="black" font-family="Arial" font-size="12.00"  text-anchor="end">
		<text><tspan font-family="Arial" >score median=3500</tspan></text>
	</g>
</g>
<g fill="none" color="black" stroke="currentColor" stroke-width="1.00" stroke-linecap="butt" stroke-linejoin="miter">
	<path stroke='rgb(230, 159,   0)'  d='M558.5,482.0 L600.7,482.0  '/></g>
	</g>
<g fill="none" color="#FFFFFF" stroke="rgb(230, 159,   0)" stroke-width="2.00" stroke-linecap="butt" stroke-linejoin="miter">
</g>
<g fill="none" color="black" stroke="currentColor" stroke-width="2.00" stroke-linecap="butt" stroke-linejoin="miter">
</g>
<g fill="none" color="black" stroke="black" stroke-width="1.00" stroke-linecap="butt" stroke-linejoin="miter">
</g>
<g fill="none" color="black" stroke="currentColor" stroke-width="1.00" stroke-linecap="butt" stroke-linejoin="miter">
	<path stroke='black'  d='M53.9,18.1 L53.9,428.0 L615.0,428.0 L615.0,18.1 L53.9,18.1 Z  '/></g>
<g fill="none" color="black" stroke="currentColor" stroke-width="1.00" stroke-linecap="butt" stroke-linejoin="miter">
</g>
</g>
</svg>
